X:1
T:I Got to Roll (Ham and Eggs)
M:4/4
L:1/4
K:C
 G, B,| C2- _E2-| G z G F| E- C3-| C z G/2G/2 F| _E2- C2-| G, G,/2 G,/2A,/2 A,/2 C|\
 C4-| C z| C C/2_E/2| G2- F2-| G z G F/2F/2| _E/2 C2- C3/2| _E/2E/2 E/2E/2 C G,/2B,/2|\
 C2- _E2| _E/2E/2 E/2E/2 C G,/2B,/2| C2||
